src/16/actions/twitter-home.svg

<svg xmlns="http://www.w3.org/2000/svg" width="16" height="16" viewBox="0 0 16 16">
 <defs>
  <style id="current-color-scheme" type="text/css">
   .ColorScheme-Text { color:#5d656b; } .ColorScheme-Highlight { color:#5294e2; }
  </style>
 </defs>
 <path style="fill:currentColor" class="ColorScheme-Text" d="M 8 0.75976562 L 0 8.5703125 L 1.5234375 10.126953 L 2.6660156 9.140625 L 3.4277344 15.236328 L 12.572266 15.236328 L 13.333984 9.140625 L 14.476562 10.09375 L 16 8.5703125 L 8 0.75976562 z M 8 6.09375 C 9.2624 6.09375 10.285156 7.1166063 10.285156 8.3789062 C 10.285156 9.6413063 9.2623 10.664062 8 10.664062 C 6.7376 10.664062 5.7148438 9.6412062 5.7148438 8.3789062 C 5.7148438 7.1165062 6.7377 6.09375 8 6.09375 z M 8 12.189453 C 8.42079 12.189453 8.7617188 12.530382 8.7617188 12.951172 C 8.7617188 13.371952 8.42079 13.712891 8 13.712891 C 7.57921 13.712891 7.2382812 13.371952 7.2382812 12.951172 C 7.2382812 12.530382 7.57921 12.189453 8 12.189453 z"/>
</svg>

<svg xmlns="http://www.w3.org/2000/svg" width="16" height="16"><defs><style id="current-color-scheme" type="text/css"></style></defs><path d="M8 .76L0 8.57l1.523 1.557 1.143-.986.762 6.095h9.144l.762-6.095 1.143.953L16 8.57 8 .76zm0 5.334a2.285 2.285 0 1 1 0 4.57 2.285 2.285 0 0 1 0-4.57zm0 6.095a.762.762 0 1 1 0 1.524.762.762 0 0 1 0-1.524z" fill="currentColor" color="#5d656b"/></svg>
